X:051
%%topmargin 3cm
T:Mrs. Grant of Laggan
B:The Nelson Music Collection
N:Newton F. Tolman & K. Dep. Gilbert
Z:Transcribed by Ralph Palmer
R:Hornpipe
L:1/8
M:C
K:Am
e | d/2c/2B/2A/2 ^GB A<A, A,>B, | C>D E>^F G2 (G<B) | A/2B/2c B/2c/2d c<A, A,>B, | C>D E>^G (A2 A) ||
B | d/2c/2B/2A/2 B>^G A>E =G>E | E<G B,>A, G,2 G,A,/2B,/2 | ((3CB,A,) ((3DCB,) ((3EDC) ((3B,CD) | ((3Edc) ((3BA^G) (A2 A) ||
(c/2B/2) | A<e c>B A/2B/2c/2B/2 A>E | G<B G>D (B,2 G,)(c/2B/2) | A<e c>B A/2B/2c/2d/2 e<a | c>A B>^G (A2 A) (c/2B/2) |
A<e d/2c/2B/2A/2 B^G AE | G<B G>D (B,2 G,)A,/2B,/2 | ((3CB,A,) ((3DCB,) ((3EDC) ((3B,CD) | ((3Edc) ((3BA^G) (A2 A) |]
